OrderedIdentitySet[ ( 'durs': Pseq([ 0.125, 0.0625, 0.5, 1.0, 0.25, 2.0 ], inf), 'degrees': Pseq([ 5, 2, 11, 8, 6, 0 ], inf), 'velocities': Pdup(6, Pseq([ 9, 0.6, 0.2 ], inf)) ), ( 'durs': Pseq([ 2.0, 0.0625, 1.0, 0.25, 0.125, 0.5 ], inf), 'degrees': Pseq([ 6, 2, 11, 8, 0, 5 ], inf), 'velocities': Pdup(6, Pseq([ 0.6, 9, 0.2 ], inf)) ), ( 'durs': Pseq([ 0.5, 1.0, 0.25, 0.0625, 0.125, 2.0 ], inf), 'degrees': Pseq([ 5, 6, 2, 8, 11, 0 ], inf), 'velocities': Pdup(6, Pseq([ 0.6, 0.2, 9 ], inf)) ), ( 'durs': Pseq([ 0.125, 0.25, 2.0, 0.5, 0.0625, 1.0 ], inf), 'degrees': Pseq([ 2, 5, 6, 0, 8, 11 ], inf), 'velocities': Pdup(6, Pseq([ 0.6, 9, 0.2 ], inf)) ), ( 'durs': Pseq([ 0.5, 1.0, 0.125, 2.0, 0.0625, 0.25 ], inf), 'degrees': Pseq([ 0, 5, 11, 6, 8, 2 ], inf), 'velocities': Pdup(6, Pseq([ 0.2, 0.6, 9 ], inf)) ), ( 'durs': Pseq([ 0.5, 2.0, 0.25, 0.0625, 1.0, 0.125 ], inf), 'degrees': Pseq([ 11, 5, 2, 8, 6, 0 ], inf), 'velocities': Pdup(6, Pseq([ 0.6, 9, 0.2 ], inf)) ), ( 'durs': Pseq([ 0.5, 0.125, 2.0, 0.25, 0.0625, 1.0 ], inf), 'degrees': Pseq([ 8, 0, 6, 11, 2, 5 ], inf), 'velocities': Pdup(6, Pseq([ 0.6, 0.2, 9 ], inf)) ), ( 'durs': Pseq([ 0.0625, 0.5, 2.0, 0.25, 0.125, 1.0 ], inf), 'degrees': Pseq([ 2, 0, 5, 8, 11, 6 ], inf), 'velocities': Pdup(6, Pseq([ 0.2, 0.6, 9 ], inf)) ), ( 'durs': Pseq([ 0.25, 0.125, 0.5, 2.0, 0.0625, 1.0 ], inf), 'degrees': Pseq([ 8, 6, 5, 11, 0, 2 ], inf), 'velocities': Pdup(6, Pseq([ 9, 0.2, 0.6 ], inf)) ), ( 'durs': Pseq([ 0.5, 2.0, 0.125, 0.25, 0.0625, 1.0 ], inf), 'degrees': Pseq([ 5, 6, 11, 8, 0, 2 ], inf), 'velocities': Pdup(6, Pseq([ 0.6, 9, 0.2 ], inf)) ), ( 'durs': Pseq([ 2.0, 0.5, 0.125, 0.25, 1.0, 0.0625 ], inf), 'degrees': Pseq([ 0, 2, 5, 6, 8, 11 ], inf), 'velocities': Pdup(6, Pseq([ 0.2, 0.6, 9 ], inf)) ), ( 'durs': Pseq([ 1.0, 0.0625, 0.125, 0.25, 2.0, 0.5 ], inf), 'degrees': Pseq([ 8, 5, 0, 2, 6, 11 ], inf), 'velocities': Pdup(6, Pseq([ 0.6, 9, 0.2 ], inf)) ), ( 'durs': Pseq([ 0.25, 0.5, 0.125, 0.0625, 1.0, 2.0 ], inf), 'degrees': Pseq([ 6, 8, 2, 0, 5, 11 ], inf), 'velocities': Pdup(6, Pseq([ 0.6, 9, 0.2 ], inf)) ) ]
